public/Img/Home/features__collaboration.svg

<svg width="56" height="56" viewBox="0 0 56 56" fill="none" xmlns="http://www.w3.org/2000/svg">
<path fill-rule="evenodd" clip-rule="evenodd" d="M5.5998 5.6001C4.05341 5.6001 2.7998 6.8537 2.7998 8.4001V30.8001C2.7998 32.3465 4.05341 33.6001 5.5998 33.6001H41.9998C43.5462 33.6001 44.7998 32.3465 44.7998 30.8001V8.4001C44.7998 6.8537 43.5462 5.6001 41.9998 5.6001H5.5998ZM32.1994 33.6002H15.3994C17.2358 33.6002 20.2767 36.009 22.1521 37.667C23.1037 38.5082 24.5432 38.5644 25.5346 37.7706C27.6067 36.1114 30.9494 33.6002 32.1994 33.6002Z" fill="#6B7CFF"/>
<path fill-rule="evenodd" clip-rule="evenodd" d="M13.5104 22.4001L14.1726 20.4597H18.0688L18.7156 22.4001H20.9486L16.9446 11.4353H15.266L11.2774 22.4001H13.5104ZM17.4992 18.6578H14.7734L16.1595 14.6692L17.4992 18.6578ZM36.3998 12.6001H23.7998V14.0001H36.3998V12.6001ZM36.3998 19.6001H23.7998V21.0001H36.3998V19.6001ZM11.2002 26.6001H36.4002V28.0001H11.2002V26.6001Z" fill="white"/>
<path fill-rule="evenodd" clip-rule="evenodd" d="M19.5996 38.3958C20.5331 39.0771 21.4292 39.8277 22.1521 40.4668C23.1036 41.308 24.5432 41.3642 25.5346 40.5704C27.5992 38.9172 30.9254 36.418 32.1858 36.4001H44.7998C46.3462 36.4001 47.5998 35.1465 47.5998 33.6001V23.8H50.9596C52.1967 23.8 53.1996 24.8029 53.1996 26.04V44.2927C53.1996 45.5298 52.1967 46.5327 50.9596 46.5327H21.8396C20.6025 46.5327 19.5996 45.5298 19.5996 44.2927V38.3958ZM29.6797 46.5328H43.1197C42.1222 46.5328 39.4587 48.5616 37.8002 49.9087C37.003 50.5561 35.8362 50.5109 35.0715 49.8253C33.5703 48.4796 31.1454 46.5328 29.6797 46.5328Z" fill="#6B7CFF"/>
</svg>

<svg width="56" height="56" fill="none" xmlns="http://www.w3.org/2000/svg"><path fill-rule="evenodd" clip-rule="evenodd" d="M5.6 5.6a2.8 2.8 0 0 0-2.8 2.8v22.4a2.8 2.8 0 0 0 2.8 2.8H42a2.8 2.8 0 0 0 2.8-2.8V8.4A2.8 2.8 0 0 0 42 5.6H5.6Zm26.6 28H15.4c1.836 0 4.877 2.409 6.752 4.067.952.841 2.391.897 3.383.104 2.072-1.66 5.414-4.17 6.664-4.17Z" fill="#6B7CFF"/><path fill-rule="evenodd" clip-rule="evenodd" d="m13.51 22.4.663-1.94h3.896l.647 1.94h2.233l-4.004-10.965h-1.679L11.277 22.4h2.233Zm3.99-3.742h-2.727l1.387-3.989 1.34 3.989ZM36.4 12.6H23.8V14h12.6v-1.4Zm0 7H23.8V21h12.6v-1.4Zm-25.2 7h25.2V28H11.2v-1.4Z" fill="#fff"/><path fill-rule="evenodd" clip-rule="evenodd" d="M19.6 38.396c.933.681 1.83 1.432 2.552 2.07.952.842 2.391.898 3.383.104 2.064-1.653 5.39-4.152 6.65-4.17H44.8a2.8 2.8 0 0 0 2.8-2.8v-9.8h3.36a2.24 2.24 0 0 1 2.24 2.24v18.253a2.24 2.24 0 0 1-2.24 2.24H21.84a2.24 2.24 0 0 1-2.24-2.24v-5.897Zm10.08 8.137h13.44c-.998 0-3.661 2.029-5.32 3.376-.797.647-1.964.602-2.728-.084-1.502-1.345-3.927-3.292-5.392-3.292Z" fill="#6B7CFF"/></svg>
